public/showcase/resources/images/home/icon-community.svg

<svg height="65" viewBox="0 0 65 65" width="65" xmlns="http://www.w3.org/2000/svg"><g fill="none" fill-rule="evenodd" transform=""><path d="m39.8478261 0h-14.6956522c-13.8478261 0-25.1521739 11.3043478-25.1521739 25.1521739v14.6956522c0 13.8478261 11.3043478 25.1521739 25.1521739 25.1521739h14.6956522c13.8478261 0 25.1521739-11.3043478 25.1521739-25.1521739v-14.6956522c0-13.8478261-11.3043478-25.1521739-25.1521739-25.1521739zm23.7391304 39.8478261c0 13.0706522-10.6684782 23.7391304-23.7391304 23.7391304h-14.6956522c-13.0706522 0-23.73913042-10.6684782-23.73913042-23.7391304v-14.6956522c0-13.0706522 10.66847822-23.73913042 23.73913042-23.73913042h14.6956522c13.0706522 0 23.7391304 10.66847822 23.7391304 23.73913042zm-4.2391304-.2826087c0 10.8804348-8.9021739 19.7826087-19.7826087 19.7826087h-14.1304348c-10.8804348 0-19.78260869-8.9021739-19.78260869-19.7826087v-14.1304348c0-10.8804348 8.90217389-19.78260869 19.78260869-19.78260869h14.1304348c10.8804348 0 19.7826087 8.90217389 19.7826087 19.78260869z" fill="#222" fill-rule="nonzero"/><g transform="translate(17.056713 16.682402)"><path d="m14.997375 11.9130163c1.1023189 0 1.9980127-.8753211 1.9980127-1.95682053 0-1.07806318-.8956938-1.95619577-1.9980127-1.95619577-1.1029566 0-1.997375.87813259-1.997375 1.95619577 0 1.08149943.8944184 1.95682053 1.997375 1.95682053z"/><path d="m14.9986505 8c-1.1042321 0-1.9986505.87813259-1.9986505 1.95619577 0 1.08149943.8940995 1.95682053 1.9986505 1.95682053 1.1023188 0 1.9967372-.8753211 1.9967372-1.95682053-.0003188-1.07806318-.8940995-1.95619577-1.9967372-1.95619577z"/><path d="m14.9980127 8c-1.1023188 0-1.9980127.87813259-1.9980127 1.95619577 0 1.08149943.895375 1.95682053 1.9980127 1.95682053 1.1039132 0 1.997375-.8753211 1.997375-1.95682053 0-1.07806318-.8934618-1.95619577-1.997375-1.95619577z"/><path d="m22.4053976 15.9038875c0-2.5841027-1.8640892-4.8195765-4.5642442-5.9035751-.0003189-.0003124-.0003189-.0003124-.0006378-.0003124v.0003124c0 .035925.0066962.0715377.0066962.1074627 0 4.933287-4.2055202 9.0596668-9.8462552 10.1396043h-.0009566c.00031887.0003124.00063773.0003124.0009566.0006248 1.50823495 1.3817077 3.7160613 2.2592155 6.1786615 2.2592155.7547552 0 1.500901-.0834085 2.2215376-.2471017l.2821962-.0281152c.4601232 0 1.4460561.2080527 2.3745931.4307879-.1259519-.273655-.1999288-.5516834-.1782459-.8134675.0274224-.3411316.2031175-.6332177.4907343-.8250261 1.9281812-1.2883027 3.0349642-3.1545297 3.0349642-5.1204096z"/><path d="m28.005978 22.3756682c2.2250451-1.543839 3.4970006-3.7780632 3.4970006-6.1516141 0-3.3760152-2.5490127-6.26032623-6.1314693-7.42398468 0 0-.0003189 0-.0003189.00031239v-.00031239c-.9585104-4.9832697-6.2258536-8.80006942-12.5983854-8.80006942-7.05331021 0-12.772805 4.66869143-12.772805 10.4279417 0 3.2897952 1.88449653 6.201909 4.78394271 8.1337383 1.10518866.7375564-1.57360243 3.2173203-1.57360243 3.2173203s5.35630671-1.4810482 6.15602199-1.3011107c1.08318693.2436654 2.22695833.3754946 3.40644273.3754946.4158009 0 .8252245-.0193682 1.230184-.0512322h.0006377c0 .0003124-.0003188.0003124-.0006377.0006248 1.7435579 2.0511628 4.6187703 3.3985075 7.8718385 3.3985075.8599809 0 1.7145411-.0952794 2.5037338-.275217.5162437 0 2.6430782.5251302 3.9896482.8962513l2.7352303.7553628-2.0627425-1.9158973c-.4594855-.4270392-.9116371-.9946546-1.0347193-1.2861159zm-21.70678529-10.0989934c-1.10263773 0-1.99801273-.8753211-1.99801273-1.9568206 0-1.07806316.89569386-1.95619575 1.99801273-1.95619575 1.10391319 0 1.997375.87813259 1.997375 1.95619575 0 1.0814995-.89346181 1.9568206-1.997375 1.9568206zm12.94531139-3.91301635c1.1023188 0 1.9980127.87813259 1.9980127 1.95619575 0 1.0814995-.8956939 1.9568206-1.9980127 1.9568206-1.1029566 0-1.997375-.8753211-1.997375-1.9568206 0-1.07806316.8944184-1.95619575 1.997375-1.95619575zm-6.4707425 3.91301635c-1.104551 0-1.9986505-.8753211-1.9986505-1.9568206 0-1.07806316.8944184-1.95619575 1.9986505-1.95619575 1.1026377 0 1.9967372.87813259 1.9967372 1.95619575-.0003188 1.0814995-.8944184 1.9568206-1.9967372 1.9568206zm13.8008281 9.892815c-.0216829.2617841.052294.5398125.1782459.8134675-.928537-.2227352-1.9144699-.4307879-2.3745931-.4307879l-.2821962.0281152c-.7206366.1636932-1.4667824.2471017-2.2215376.2471017-2.4626001 0-4.6701077-.8778202-6.1786615-2.2592155-.0003188-.0003124-.0006377-.0003124-.0009566-.0006248h.0009566c5.6404161-1.0799375 9.8462552-5.2063173 9.8462552-10.1396043 0-.035925-.0066962-.0715377-.0066962-.1074627v-.0003124c.0003189 0 .0003189 0 .0006378.0003124 2.7001551 1.0839986 4.5642442 3.3194724 4.5642442 5.9035751 0 1.96588-1.106783 3.832107-3.0349641 5.120722-.2876169.191496-.4633119.4838945-.4907344.8247137z" fill="#fff"/></g></g></svg>

<?xml version="1.0" encoding="UTF-8"?>
<svg width="65px" height="65px" viewBox="0 0 65 65" version="1.1" xmlns="http://www.w3.org/2000/svg" xmlns:xlink="http://www.w3.org/1999/xlink">
    <!-- Generator: sketchtool 45.2 (43514) - http://www.bohemiancoding.com/sketch -->
    <title>688D1B9D-328C-4C79-B7A3-F492FA58254F</title>
    <desc>Created with sketchtool.</desc>
    <defs></defs>
    <g id="Page-1" stroke="none" stroke-width="1" fill="none" fill-rule="evenodd">
        <g id="PrimeReact-Showcase---Homepage" transform="translate(-1201.000000, -592.000000)">
            <g id="homepage" transform="translate(301.000000, 70.000000)">
                <g id="features" transform="translate(20.000000, 350.000000)">
                    <g id="info-box" transform="translate(92.000000, 171.000000)">
                        <g id="community" transform="translate(719.000000, 1.000000)">
                            <g id="icon-community" transform="translate(69.000000, 0.000000)">
                                <path d="M39.8478261,0 L25.1521739,0 C11.3043478,0 0,11.3043478 0,25.1521739 L0,39.8478261 C0,53.6956522 11.3043478,65 25.1521739,65 L39.8478261,65 C53.6956522,65 65,53.6956522 65,39.8478261 L65,25.1521739 C65,11.3043478 53.6956522,0 39.8478261,0 Z M63.5869565,39.8478261 C63.5869565,52.9184783 52.9184783,63.5869565 39.8478261,63.5869565 L25.1521739,63.5869565 C12.0815217,63.5869565 1.41304348,52.9184783 1.41304348,39.8478261 L1.41304348,25.1521739 C1.41304348,12.0815217 12.0815217,1.41304348 25.1521739,1.41304348 L39.8478261,1.41304348 C52.9184783,1.41304348 63.5869565,12.0815217 63.5869565,25.1521739 L63.5869565,39.8478261 Z M59.3478261,39.5652174 C59.3478261,50.4456522 50.4456522,59.3478261 39.5652174,59.3478261 L25.4347826,59.3478261 C14.5543478,59.3478261 5.65217391,50.4456522 5.65217391,39.5652174 L5.65217391,25.4347826 C5.65217391,14.5543478 14.5543478,5.65217391 25.4347826,5.65217391 L39.5652174,5.65217391 C50.4456522,5.65217391 59.3478261,14.5543478 59.3478261,25.4347826 L59.3478261,39.5652174 Z" id="Shape" fill="#222222" fill-rule="nonzero"></path>
                                <g transform="translate(17.056713, 16.682402)" id="Shape">
                                    <path d="M14.997375,11.9130163 C16.0996939,11.9130163 16.9953877,11.0376952 16.9953877,9.95619577 C16.9953877,8.87813259 16.0996939,8 14.997375,8 C13.8944184,8 13,8.87813259 13,9.95619577 C13,11.0376952 13.8944184,11.9130163 14.997375,11.9130163 Z"></path>
                                    <path d="M14.9986505,8 C13.8944184,8 13,8.87813259 13,9.95619577 C13,11.0376952 13.8940995,11.9130163 14.9986505,11.9130163 C16.1009693,11.9130163 16.9953877,11.0376952 16.9953877,9.95619577 C16.9950689,8.87813259 16.1012882,8 14.9986505,8 Z"></path>
                                    <path d="M14.9980127,8 C13.8956939,8 13,8.87813259 13,9.95619577 C13,11.0376952 13.895375,11.9130163 14.9980127,11.9130163 C16.1019259,11.9130163 16.9953877,11.0376952 16.9953877,9.95619577 C16.9953877,8.87813259 16.1019259,8 14.9980127,8 Z"></path>
                                    <path d="M22.4053976,15.9038875 C22.4053976,13.3197848 20.5413084,11.084311 17.8411534,10.0003124 C17.8408345,10 17.8408345,10 17.8405156,10 C17.8405156,10 17.8405156,10 17.8405156,10.0003124 C17.8405156,10.0362374 17.8472118,10.0718501 17.8472118,10.1077751 C17.8472118,15.0410621 13.6416916,19.1674419 8.0009566,20.2473794 L8,20.2473794 C8.00031887,20.2476918 8.00063773,20.2476918 8.0009566,20.2480042 C9.50919155,21.6297119 11.7170179,22.5072197 14.1796181,22.5072197 C14.9343733,22.5072197 15.6805191,22.4238112 16.4011557,22.260118 L16.6833519,22.2320028 C17.1434751,22.2320028 18.129408,22.4400555 19.057945,22.6627907 C18.9319931,22.3891357 18.8580162,22.1111073 18.8796991,21.8493232 C18.9071215,21.5081916 19.0828166,21.2161055 19.3704334,21.0242971 C21.2986146,19.7359944 22.4053976,17.8697674 22.4053976,15.9038875 Z"></path>
                                    <path d="M28.005978,22.3756682 C30.2310231,20.8318292 31.5029786,18.597605 31.5029786,16.2240541 C31.5029786,12.8480389 28.9539659,9.96372787 25.3715093,8.80006942 C25.3715093,8.80006942 25.3711904,8.80006942 25.3711904,8.80038181 L25.3711904,8.80006942 C24.41268,3.81679972 19.1453368,0 12.772805,0 C5.71949479,0 0,4.66869143 0,10.4279417 C0,13.7177369 1.88449653,16.6298507 4.78394271,18.56168 C5.88913137,19.2992364 3.21034028,21.7790003 3.21034028,21.7790003 C3.21034028,21.7790003 8.56664699,20.2979521 9.36636227,20.4778896 C10.4495492,20.721555 11.5933206,20.8533842 12.772805,20.8533842 C13.1886059,20.8533842 13.5980295,20.834016 14.002989,20.802152 L14.0036267,20.802152 C14.0036267,20.8024644 14.0033079,20.8024644 14.002989,20.8027768 C15.7465469,22.8539396 18.6217593,24.2012843 21.8748275,24.2012843 C22.7348084,24.2012843 23.5893686,24.1060049 24.3785613,23.9260673 C24.894805,23.9260673 27.0216395,24.4511975 28.3682095,24.8223186 L31.1034398,25.5776814 L29.0406973,23.6617841 C28.5812118,23.2347449 28.1290602,22.6671295 28.005978,22.3756682 Z M6.29919271,12.2766748 C5.19655498,12.2766748 4.30117998,11.4013537 4.30117998,10.3198542 C4.30117998,9.24179104 5.19687384,8.36365845 6.29919271,8.36365845 C7.4031059,8.36365845 8.29656771,9.24179104 8.29656771,10.3198542 C8.29656771,11.4013537 7.4031059,12.2766748 6.29919271,12.2766748 Z M19.2445041,8.36365845 C20.3468229,8.36365845 21.2425168,9.24179104 21.2425168,10.3198542 C21.2425168,11.4013537 20.3468229,12.2766748 19.2445041,12.2766748 C18.1415475,12.2766748 17.2471291,11.4013537 17.2471291,10.3198542 C17.2471291,9.24179104 18.1415475,8.36365845 19.2445041,8.36365845 Z M12.7737616,12.2766748 C11.6692106,12.2766748 10.7751111,11.4013537 10.7751111,10.3198542 C10.7751111,9.24179104 11.6695295,8.36365845 12.7737616,8.36365845 C13.8763993,8.36365845 14.7704988,9.24179104 14.7704988,10.3198542 C14.77018,11.4013537 13.8760804,12.2766748 12.7737616,12.2766748 Z M26.5745897,22.1694898 C26.5529068,22.4312739 26.6268837,22.7093023 26.7528356,22.9829573 C25.8242986,22.7602221 24.8383657,22.5521694 24.3782425,22.5521694 L24.0960463,22.5802846 C23.3754097,22.7439778 22.6292639,22.8273863 21.8745087,22.8273863 C19.4119086,22.8273863 17.204401,21.9495661 15.6958472,20.5681708 C15.6955284,20.5678584 15.6952095,20.5678584 15.6948906,20.567546 L15.6958472,20.567546 C21.3362633,19.4876085 25.5421024,15.3612287 25.5421024,10.4279417 C25.5421024,10.3920167 25.5354062,10.356404 25.5354062,10.320479 L25.5354062,10.3201666 C25.5357251,10.3201666 25.5357251,10.3201666 25.536044,10.320479 C28.2361991,11.4044776 30.1002882,13.6399514 30.1002882,16.2240541 C30.1002882,18.1899341 28.9935052,20.0561611 27.0653241,21.3447761 C26.7777072,21.5362721 26.6020122,21.8286706 26.5745897,22.1694898 Z" fill="#FFFFFF"></path>
                                </g>
                            </g>
                        </g>
                    </g>
                </g>
            </g>
        </g>
    </g>
</svg>
